svg/transgender_positive.svg

<?xml version="1.0" encoding="UTF-8" standalone="no"?>
<!-- Created with Inkscape (http://www.inkscape.org/) -->
<svg id="svg8" xmlns:rdf="http://www.w3.org/1999/02/22-rdf-syntax-ns#" xmlns="http://www.w3.org/2000/svg" xmlns:osb="http://www.openswatchbook.org/uri/2009/osb" height="48" width="48" version="1.1" xmlns:cc="http://creativecommons.org/ns#" viewBox="0 0 12.7 12.7" xmlns:dc="http://purl.org/dc/elements/1.1/">
 <title id="title4753">UIO-icon</title>
 <metadata id="metadata5">
  <rdf:RDF>
   <cc:Work rdf:about="">
    <dc:format>image/svg+xml</dc:format>
    <dc:type rdf:resource="http://purl.org/dc/dcmitype/StillImage"/>
    <dc:title>UIO-icon</dc:title>
    <dc:creator>
     <cc:Agent>
      <dc:title>Joaquín Urbano</dc:title>
     </cc:Agent>
    </dc:creator>
    <dc:rights>
     <cc:Agent>
      <dc:title>GPL</dc:title>
     </cc:Agent>
    </dc:rights>
   </cc:Work>
  </rdf:RDF>
 </metadata>
 <g id="layer1" transform="translate(0,-284.3)">
  <path id="rect4902" d="m24 8.0801c-1.933 0-3.5 1.567-3.5 3.5-3e-8 1.933 1.567 3.5 3.5 3.5s3.5-1.567 3.5-3.5-1.567-3.5-3.5-3.5zm-0.34766 7.8613-3.1875 0.001953v0.007813c-0.5727 0.011339-1.1193 0.32691-1.3887 0.87891l-3.8691 7.9258c-0.38289 0.78455-0.058027 1.7246 0.72656 2.1074 0.78459 0.3829 1.7226 0.060095 2.1055-0.72461l2.5371-5.2578-0.11133 5.8633v11.6c0 0.87303 0.70118 1.5762 1.5742 1.5762 0.87303 0 1.5762-0.70314 1.5762-1.5762v-7.112h0.761v7.112c0 0.87303 0.70314 1.5762 1.5762 1.5762 0.87303 0 1.5762-0.70314 1.5762-1.5762v-7.1113h2.2207c-2.9744-4.8712-3.5694-6.8123-2.5078-10.85l2.7188 5.7559c0.38289 0.78459 1.3228 1.1075 2.1074 0.72461 0.78459-0.3829 1.1075-1.3228 0.72461-2.1074l-3.869-7.926c-0.2705-0.55431-0.8192-0.87338-1.3945-0.88086v-0.007813h-3.5275z" fill-rule="evenodd" transform="matrix(.26458 0 0 .26458 0 284.3)" fill="#333"/>
 </g>
</svg>

<svg width="48" height="48" viewBox="0 0 48 48" fill="none" xmlns="http://www.w3.org/2000/svg">
<path fill-rule="evenodd" clip-rule="evenodd" d="M23.9996 8.08008C22.0667 8.08008 20.4997 9.64706 20.4997 11.58C20.4997 13.513 22.0667 15.08 23.9996 15.08C25.9326 15.08 27.4996 13.513 27.4996 11.58C27.4996 9.64706 25.9326 8.08008 23.9996 8.08008ZM23.652 15.9413L20.4645 15.9432V15.951C19.8918 15.9624 19.3452 16.278 19.0758 16.8299L15.2068 24.7556C14.8239 25.5402 15.1488 26.4802 15.9333 26.863C16.7179 27.2459 17.6559 26.9231 18.0388 26.1384L20.5759 20.8807L20.4646 26.7439V38.3438C20.4646 39.2168 21.1657 39.9199 22.0387 39.9199C22.9118 39.9199 23.6149 39.2168 23.6149 38.3438V31.2319H24.3759V38.3438C24.3759 39.2168 25.079 39.9199 25.9521 39.9199C26.8251 39.9199 27.5283 39.2168 27.5283 38.3438V31.2326H29.7489C26.7746 26.3614 26.1796 24.4203 27.2412 20.3827L29.9599 26.1385C30.3428 26.9231 31.2827 27.246 32.0673 26.8631C32.8519 26.4802 33.1748 25.5403 32.7919 24.7557L28.923 16.8298C28.6525 16.2755 28.1038 15.9565 27.5285 15.949V15.9412H24.001L23.652 15.9413Z" fill="#333333"/>
</svg>
